src/pos-icons/email-lock.svg

<svg height="24" viewBox="0 0 24 24" width="24" xmlns="http://www.w3.org/2000/svg"><path d="m20.5 0a2.5 2.5 0 0 1 2.5 2.5v.5a1 1 0 0 1 1 1v4a1 1 0 0 1 -1 1h-5a1 1 0 0 1 -1-1v-4a1 1 0 0 1 1-1v-.5a2.5 2.5 0 0 1 2.5-2.5m-8.5 11-8-5v2l8 5 4.18-2.61c.51.38 1.14.61 1.82.61h4v7a2 2 0 0 1 -2 2h-16a2 2 0 0 1 -2-2v-12a2 2 0 0 1 2-2h11v4c0 .36.06.7.18 1zm8.5-10a1.5 1.5 0 0 0 -1.5 1.5v.5h3v-.5a1.5 1.5 0 0 0 -1.5-1.5z"/></svg>

<?xml version="1.0" encoding="UTF-8"?><!DOCTYPE svg PUBLIC "-//W3C//DTD SVG 1.1//EN" "http://www.w3.org/Graphics/SVG/1.1/DTD/svg11.dtd"><svg xmlns="http://www.w3.org/2000/svg" xmlns:xlink="http://www.w3.org/1999/xlink" version="1.1" id="mdi-email-lock" width="24" height="24" viewBox="0 0 24 24"><path d="M20.5,0A2.5,2.5 0 0,1 23,2.5V3A1,1 0 0,1 24,4V8A1,1 0 0,1 23,9H18A1,1 0 0,1 17,8V4A1,1 0 0,1 18,3V2.5A2.5,2.5 0 0,1 20.5,0M12,11L4,6V8L12,13L16.18,10.39C16.69,10.77 17.32,11 18,11H22V18A2,2 0 0,1 20,20H4A2,2 0 0,1 2,18V6A2,2 0 0,1 4,4H15V8C15,8.36 15.06,8.7 15.18,9L12,11M20.5,1A1.5,1.5 0 0,0 19,2.5V3H22V2.5A1.5,1.5 0 0,0 20.5,1Z" /></svg>
